assets/Nav-course icon-hollow.svg

<svg fill="none" height="24" viewBox="0 0 24 24" width="24" xmlns="http://www.w3.org/2000/svg"><g stroke="#122666" stroke-linecap="round" stroke-linejoin="round" stroke-width="2"><path d="m3.58333 4.375h4.75c.83985 0 1.64531.33363 2.23917.9275.5939.59386.9275 1.39931.9275 2.23917v11.08333c0-.6299-.2502-1.234-.6956-1.6794s-1.04951-.6956-1.6794-.6956h-5.54167z"/><path d="m19.4167 4.375h-4.75c-.8399 0-1.6453.33363-2.2392.9275-.5939.59386-.9275 1.39931-.9275 2.23917v11.08333c0-.6299.2502-1.234.6956-1.6794s1.0495-.6956 1.6794-.6956h5.5417z"/></g></svg>

<svg width="24" height="24" viewBox="0 0 24 24" fill="none" xmlns="http://www.w3.org/2000/svg">
<path d="M3.58333 4.375H8.33333C9.17318 4.375 9.97864 4.70863 10.5725 5.3025C11.1664 5.89636 11.5 6.70181 11.5 7.54167V18.625C11.5 17.9951 11.2498 17.391 10.8044 16.9456C10.359 16.5002 9.75489 16.25 9.125 16.25H3.58333V4.375Z" stroke="#122666" stroke-width="2" stroke-linecap="round" stroke-linejoin="round"/>
<path d="M19.4167 4.375H14.6667C13.8268 4.375 13.0214 4.70863 12.4275 5.3025C11.8336 5.89636 11.5 6.70181 11.5 7.54167V18.625C11.5 17.9951 11.7502 17.391 12.1956 16.9456C12.641 16.5002 13.2451 16.25 13.875 16.25H19.4167V4.375Z" stroke="#122666" stroke-width="2" stroke-linecap="round" stroke-linejoin="round"/>
</svg>
